public/avatar/item2/10.svg

<svg xmlns:xlink="http://www.w3.org/1999/xlink" height="99.2" width="82.2" xmlns="http://www.w3.org/2000/svg"><use height="21.25" transform="translate(14.55 68.1)" width="31.7" xlink:href="#a"/><defs><g id="a" fill-rule="evenodd"><path d="m15.25 21.35-.25.7q-2.15 5.05-7.85 7.85l-4.8 1.7.1.3q.4.65 2.25 1.15l.45.15-.3.3-.8 1.9q-.7 4.2-1.55 5.15L.2 42.4l-.25.2-2.55-5.85q-3.5-.8-4.3-2.8l-.2-.95q0-.95.65-1.95l.2-.25-1.1-.45q-2.95-1.45-4.75-2.9-2.7-2.3-4.1-5.4l-.25-.7q1.55 2.7 4.3 4.85 2.05 1.6 4.85 2.9l2.1.8q1.1-.65 2.95-1.05l3.5.25.1.05.4 1q9.4-1.6 13.5-8.8M.4 30l-2.6-.1q-2.75.5-3.6 1.75L-6.3 33l.15.55q.65 1.65 3.7 2.2l.45.1.75 1.65L.1 40.65l.2.45L1.6 40q.6-.85 1.1-3.65l.05-.1.15-1 .45-1.45-.2-.1-.15-.05-.75-.4-.8-.7L.4 30" fill="#1d1d24" transform="translate(16.45 -21.35)"/><path d="M-5.9 33.25q-.05-.85.5-1.4 1.9-2.2 5.85-1.65L.4 30l1.05 2.55.8.7H-5.9" fill="#c92931" transform="translate(16.45 -21.35)"/><path d="m1.95 37.5-.85 2.25-1 .9-1.35-3.15h3.2" fill="#00d904" transform="translate(16.45 -21.35)"/><path d="m-6.15 33.55.4.6-.15-.9h8.15l.75.4q-.6 1.3-.75 2.1l-.3 1.75h-3.2L-2 35.85l-.45-.1q-3.05-.55-3.7-2.2" fill="#ff0" transform="translate(16.45 -21.35)"/><path d="m.4 30 .05.2q-3.95-.55-5.85 1.65-.55.55-.5 1.4l.15.9-.4-.6-.15-.55.5-1.35q.85-1.25 3.6-1.75l2.6.1" fill="#fff6e1" transform="translate(16.45 -21.35)"/><path d="m3 33.65.15.05.2.1-.45 1.45-.15 1-.05.1q-.5 2.8-1.1 3.65L.3 41.1l-.2-.45 1-.9.85-2.25.3-1.75q.15-.8.75-2.1" fill="#b19214" transform="translate(16.45 -21.35)"/></g></defs></svg>

<?xml version="1.0" encoding="UTF-8" standalone="no"?>
<svg xmlns:xlink="http://www.w3.org/1999/xlink" height="99.2px" width="82.2px" xmlns="http://www.w3.org/2000/svg">
  <g transform="matrix(1.0, 0.0, 0.0, 1.0, 31.0, 46.75)">
    <use height="21.25" transform="matrix(1.0, 0.0, 0.0, 1.0, -16.45, 21.35)" width="31.7" xlink:href="#shape0"/>
  </g>
  <defs>
    <g id="shape0" transform="matrix(1.0, 0.0, 0.0, 1.0, 16.45, -21.35)">
      <path d="M15.25 21.35 L15.0 22.05 Q12.85 27.1 7.15 29.9 L2.35 31.6 2.45 31.9 Q2.85 32.55 4.7 33.05 L5.15 33.2 4.85 33.5 4.05 35.4 Q3.35 39.6 2.5 40.55 L0.2 42.4 -0.05 42.6 -2.6 36.75 Q-6.1 35.95 -6.9 33.95 L-7.1 33.0 Q-7.1 32.05 -6.45 31.05 L-6.25 30.8 -7.35 30.35 Q-10.3 28.9 -12.1 27.45 -14.8 25.15 -16.2 22.05 L-16.45 21.35 Q-14.9 24.05 -12.15 26.2 -10.1 27.8 -7.3 29.1 L-5.2 29.9 Q-4.1 29.25 -2.25 28.85 L1.25 29.1 1.35 29.15 1.75 30.15 Q11.15 28.55 15.25 21.35 M0.4 30.0 L-2.2 29.9 Q-4.95 30.4 -5.8 31.65 L-6.3 33.0 -6.15 33.55 Q-5.5 35.2 -2.45 35.75 L-2.0 35.85 -1.25 37.5 0.1 40.65 0.3 41.1 1.6 40.0 Q2.2 39.15 2.7 36.35 L2.75 36.25 2.9 35.25 3.35 33.8 3.15 33.7 3.0 33.65 2.25 33.25 1.45 32.55 0.4 30.0" fill="#1d1d24" fill-rule="evenodd" stroke="none"/>
      <path d="M-5.9 33.25 Q-5.95 32.4 -5.4 31.85 -3.5 29.65 0.45 30.2 L0.4 30.0 1.45 32.55 2.25 33.25 -5.9 33.25" fill="#c92931" fill-rule="evenodd" stroke="none"/>
      <path d="M1.95 37.5 L1.1 39.75 0.1 40.65 -1.25 37.5 1.95 37.5" fill="#00d904" fill-rule="evenodd" stroke="none"/>
      <path d="M-6.15 33.55 L-5.75 34.15 -5.9 33.25 2.25 33.25 3.0 33.65 Q2.4 34.95 2.25 35.75 L1.95 37.5 -1.25 37.5 -2.0 35.85 -2.45 35.75 Q-5.5 35.2 -6.15 33.55" fill="#ffff00" fill-rule="evenodd" stroke="none"/>
      <path d="M0.4 30.0 L0.45 30.2 Q-3.5 29.65 -5.4 31.85 -5.95 32.4 -5.9 33.25 L-5.75 34.15 -6.15 33.55 -6.3 33.0 -5.8 31.65 Q-4.95 30.4 -2.2 29.9 L0.4 30.0" fill="#fff6e1" fill-rule="evenodd" stroke="none"/>
      <path d="M3.0 33.65 L3.15 33.7 3.35 33.8 2.9 35.25 2.75 36.25 2.7 36.35 Q2.2 39.15 1.6 40.0 L0.3 41.1 0.1 40.65 1.1 39.75 1.95 37.5 2.25 35.75 Q2.4 34.95 3.0 33.65" fill="#b19214" fill-rule="evenodd" stroke="none"/>
    </g>
  </defs>
</svg>
